X:1
T:Gather with the Faithful
T:George T. Kirkpatrick
T:Gather with the Faithful
T:Public Domain
T:Public Domain
C:George T. Kirkpatrick
Z:Public Domain
%%score ( 1 2 ) ( 3 4 )
L:1/8
M:4/4
K:Ab
V:1 treble 
V:2 treble 
V:3 bass 
V:4 bass 
V:1
 [CE]4 [=B,=D]2 [CE]2 | [DF]4 [CE]4 | (C2 E2) [DG]2 [CA]2 | [DB]8 | [Ec]4 [DB]2 [CA]2 | %5
w: 1.~Joy in my|sad- ness,|hope * in my|Now|let Thy pre-|
w: 2.~Come when the|morn- ing|breaks * on my|Come|in the noon-|
w: 3.~Star of the|wea- ry,|rise * on my|Where|Thou art lead-|
 [EG]4 [DF]4 | [=DF]3 [DG] [DA]2 [Dc]2 | (z2 E2 F2 E2) | [CE]4 [=B,=D]2 [CE]2 | [DF]4 [CE]4 | %10
w: sence ban-|ish all my fears.||* I am|wait- ing,|
w: tide, love-|ly, calm and bright;||* when the|day- beams|
w: ing, joy-|ful I o- bey.||* o’er life’s|o- cean,|
 (C2 E2) [DG]2 [CA]2 | [EB]8 | [Ec]4 [DB]2 [CA]2 | [=EG]4 F4 | [DE]3 [DF] [DG]2 [DB]2 | [CA]6 z2 || %16
w: here * at Thy|O|my Re- deem-|er, leave|not a- lone. *||
w: gent- * ly have|O|my Re- deem-|er, leave|not a- lone. Wher-|ev-|
w: storm * bil- lows|O|my Re- deem-|er, safe-|bear me home. *||
"^Refrain" E | [EB]>[E=A] [EB]>[EA] [EB]3 [E=B] | [Ec]>[DB] [CA]>[DF] [CE]4 | %19
w: |||
w: er|may go, wher- ev- er I|may be, Thou in whom|
w: |||
 [DG]>[D^F] [DG]>[DF] [DG]3 [D=F] | [CF]>[CE] [A,C]>[DF] [CE]4 | %21
w: ||
w: I trust, O still a- bide|with me; Keep this heart|
w: ||
 [Ec]>[=D=B] [Ec]>[DB] [Ec]3 [E_B] | [FB]>[FA] [FA]>[DF] [Fd]3 [DF] | %23
w: ||
w: of mine and hide my life|with Thine, That I may ga-|
w: ||
 [CE]2 [EA]2 [EG]>[EA] [Ac]>[GB] | (G2 E2) [EA]4 |] %25
w: ||
w: ther with the faith- ful. *||
w: ||
V:2
 x8 | x8 | A4 x4 | x8 | x8 | x8 | x8 | [_DB]8 | x8 | x8 | A4 x4 | x8 | x8 | x4 F4 | x8 | x8 || E | %17
w: ||tears;|||||Lo,|||throne;|||me||||
w: ||sight;|||||Come|||flown;|||me|||I|
w: ||way;|||||When,|||foam,|||ly||||
 x8 | x8 | x8 | x8 | x8 | x8 | x8 | B4 x4 |] %25
w: ||||||||
w: ||||||||
w: ||||||||
V:3
 [A,,A,]4 [A,,A,]2 [A,,A,]2 | [A,,A,]4 [A,,A,]4 | (A,,2 C,2) [B,,E,]2 [A,,A,]2 | [E,G,]8 | %4
 [A,,A,]4 [B,,E,]2 [A,,A,]2 | [D,A,]4 [D,A,]4 | [B,,B,]3 [B,,B,] [B,,A,]2 [B,,A,]2 | [E,G,]8 | %8
 [A,,A,]4 [A,,A,]2 [A,,A,]2 | [A,,A,]4 [A,,A,]4 | (A,,2 C,2) [B,,E,]2 [A,,A,]2 | [E,G,]8 | %12
 A,4 [E,G,]2 [F,A,]2 | (C2 B,2) [D,A,]4 | [E,G,]3 [E,A,] [E,B,]2 [E,G,]2 | [A,,A,]6 z2 || [E,G,] | %17
 [E,D]>[E,C] [E,D]>[E,C] [E,D]3 [E,G,] | [A,,A,]>[A,,A,] [A,,A,]>[A,,A,] [A,,A,]4 | %19
 [E,B,]>[E,=A,] [E,B,]>[E,A,] [E,B,]3 [E,G,] | [A,,A,]>[A,,A,] [A,,E,]>[A,,A,] [A,,A,]4 | %21
 A,>A, A,>A, A,3 [C,A,] | [D,A,]>[D,A,] [D,A,]>[D,A,] [D,A,]3 [D,A,] | %23
 [E,A,]2 [E,C]2 [E,B,]>[E,C] [E,E]>[E,D] | [E,D]4 [A,,C]4 |] %25
V:4
 x8 | x8 | E,4 x4 | x8 | x8 | x8 | x8 | x8 | x8 | x8 | E,4 x4 | x8 | A,4 x4 | C,4 x4 | x8 | x8 || %16
 x | x8 | x8 | x8 | x8 | A,>A, A,>A, A,3 x | x8 | x8 | x8 |] %25

